packages/blockchain-info-components/src/Images/img/wallet-grayscale.svg

<svg fill="none" height="32" viewBox="0 0 33 32" width="33" xmlns="http://www.w3.org/2000/svg"><path d="m3.16797 21.3333v-14.66663c0-1.47276 1.1939-2.66667 2.66666-2.66667h21.33337c1.4727 0 2.6666 1.19391 2.6666 2.66667v14.66663c0 1.4728-1.1939 2.6667-2.6666 2.6667h-21.33336c-1.47276 0-2.66667-1.1939-2.66667-2.6667z" fill="#fff"/><path d="m3.16797 21.3333v-14.66663c0-1.47276 1.1939-2.66667 2.66666-2.66667h21.33337c1.4727 0 2.6666 1.19391 2.6666 2.66667v14.66663c0 1.4728-1.1939 2.6667-2.6666 2.6667h-21.33336c-1.47276 0-2.66667-1.1939-2.66667-2.6667z" fill="#98a1b2" fill-opacity=".36"/><path d="m3.16797 21.3333v-14.66663c0-1.47276 1.1939-2.66667 2.66666-2.66667h21.33337c1.4727 0 2.6666 1.19391 2.6666 2.66667v14.66663c0 1.4728-1.1939 2.6667-2.6666 2.6667h-21.33336c-1.47276 0-2.66667-1.1939-2.66667-2.6667z" stroke="#98a1b2" stroke-linecap="round" stroke-linejoin="round" stroke-width="2"/><path d="m3.16797 21.3335v-8h26.66663v8c0 1.4728-1.1939 2.6667-2.6666 2.6667h-21.33336c-1.47276 0-2.66667-1.1939-2.66667-2.6667z" fill="#fff" stroke="#98a1b2" stroke-linecap="round" stroke-linejoin="round" stroke-width="2"/><path d="m3.16797 22.5586v-15.78363c0-1.36511 1.33739-2.32905 2.63245-1.89737l15.54418 5.1814c1.0889.3629 1.8234 1.382 1.8234 2.5298v14.3782c0 1.8201-1.7832 3.1054-3.51 2.5298l-15.12249-5.0409c-.81668-.2722-1.36754-1.0365-1.36754-1.8973z" fill="#fff"/><path d="m3.16797 22.5586v-15.78363c0-1.36511 1.33739-2.32905 2.63245-1.89737l15.54418 5.1814c1.0889.3629 1.8234 1.382 1.8234 2.5298v14.3782c0 1.8201-1.7832 3.1054-3.51 2.5298l-15.12249-5.0409c-.81668-.2722-1.36754-1.0365-1.36754-1.8973z" fill="#98a1b2" fill-opacity=".36"/><g stroke="#98a1b2" stroke-width="2"><path d="m3.16797 22.5586v-15.78363c0-1.36511 1.33739-2.32905 2.63245-1.89737l15.54418 5.1814c1.0889.3629 1.8234 1.382 1.8234 2.5298v14.3782c0 1.8201-1.7832 3.1054-3.51 2.5298l-15.12249-5.0409c-.81668-.2722-1.36754-1.0365-1.36754-1.8973z" stroke-linecap="round" stroke-linejoin="round"/><path d="m17.168 21.3335c1.1046 0 2-.8954 2-2s-.8954-2-2-2-2 .8954-2 2 .8954 2 2 2z" fill="#fff"/></g></svg>

<svg width="33" height="32" viewBox="0 0 33 32" fill="none" xmlns="http://www.w3.org/2000/svg">
<path d="M3.16797 21.3333V6.66667C3.16797 5.19391 4.36187 4 5.83463 4H27.168C28.6407 4 29.8346 5.19391 29.8346 6.66667V21.3333C29.8346 22.8061 28.6407 24 27.168 24H5.83464C4.36188 24 3.16797 22.8061 3.16797 21.3333Z" fill="white"/>
<path d="M3.16797 21.3333V6.66667C3.16797 5.19391 4.36187 4 5.83463 4H27.168C28.6407 4 29.8346 5.19391 29.8346 6.66667V21.3333C29.8346 22.8061 28.6407 24 27.168 24H5.83464C4.36188 24 3.16797 22.8061 3.16797 21.3333Z" fill="#98A1B2" fill-opacity="0.36"/>
<path d="M3.16797 21.3333V6.66667C3.16797 5.19391 4.36187 4 5.83463 4H27.168C28.6407 4 29.8346 5.19391 29.8346 6.66667V21.3333C29.8346 22.8061 28.6407 24 27.168 24H5.83464C4.36188 24 3.16797 22.8061 3.16797 21.3333V21.3333Z" stroke="#98A1B2" stroke-width="2" stroke-linecap="round" stroke-linejoin="round"/>
<path d="M3.16797 21.3335V13.3335H29.8346V21.3335C29.8346 22.8063 28.6407 24.0002 27.168 24.0002H5.83464C4.36188 24.0002 3.16797 22.8063 3.16797 21.3335Z" fill="white" stroke="#98A1B2" stroke-width="2" stroke-linecap="round" stroke-linejoin="round"/>
<path d="M3.16797 22.5586V6.77497C3.16797 5.40986 4.50536 4.44592 5.80042 4.8776L21.3446 10.059C22.4335 10.4219 23.168 11.441 23.168 12.5888V26.967C23.168 28.7871 21.3848 30.0724 19.658 29.4968L4.53551 24.4559C3.71883 24.1837 3.16797 23.4194 3.16797 22.5586Z" fill="white"/>
<path d="M3.16797 22.5586V6.77497C3.16797 5.40986 4.50536 4.44592 5.80042 4.8776L21.3446 10.059C22.4335 10.4219 23.168 11.441 23.168 12.5888V26.967C23.168 28.7871 21.3848 30.0724 19.658 29.4968L4.53551 24.4559C3.71883 24.1837 3.16797 23.4194 3.16797 22.5586Z" fill="#98A1B2" fill-opacity="0.36"/>
<path d="M3.16797 22.5586V6.77497C3.16797 5.40986 4.50536 4.44592 5.80042 4.8776L21.3446 10.059C22.4335 10.4219 23.168 11.441 23.168 12.5888V26.967C23.168 28.7871 21.3848 30.0724 19.658 29.4968L4.53551 24.4559C3.71883 24.1837 3.16797 23.4194 3.16797 22.5586V22.5586Z" stroke="#98A1B2" stroke-width="2" stroke-linecap="round" stroke-linejoin="round"/>
<path d="M17.168 21.3335C18.2726 21.3335 19.168 20.4381 19.168 19.3335C19.168 18.2289 18.2726 17.3335 17.168 17.3335C16.0634 17.3335 15.168 18.2289 15.168 19.3335C15.168 20.4381 16.0634 21.3335 17.168 21.3335Z" fill="white" stroke="#98A1B2" stroke-width="2"/>
</svg>
